src/assets/icons/cars/impeccable_car.svg

<svg width="48" height="48" viewBox="0 0 48 48" fill="none" xmlns="http://www.w3.org/2000/svg"><path fill-rule="evenodd" clip-rule="evenodd" d="M18 30h-2a1 1 0 000 2h2a1 1 0 000-2zM32 30h-2a1 1 0 000 2h2a1 1 0 000-2z" fill="#253238"/><path fill-rule="evenodd" clip-rule="evenodd" d="M13 35v-4.747c0-.211.209-.577.377-.872l.648-1.148C14.419 27.53 15.244 27 15.943 27h16.114c.675 0 1.407.496 1.821 1.233l.688.965c.158.281.434.789.434 1.055V35H13zm20.504 3c-.647-.002-1.376-.51-1.489-1h2.97c-.112.49-.838.998-1.481 1zm-19 0c-.647-.002-1.376-.51-1.489-1h2.97c-.112.49-.838.998-1.481 1zm2.365-15.776c.255-.766.976-1.224 1.928-1.224h10.406c.952 0 1.673.458 1.932 1.235l.96 2.765h-16.19l.964-2.776zM37 26a1 1 0 00-1-1h-1.789l-1.182-3.408C32.504 20.017 31.002 19 29.203 19H18.797c-1.799 0-3.301 1.017-3.822 2.58L13.789 25H12a1 1 0 000 2h.447c-.055.084-.115.165-.165.252l-.643 1.139c-.285.5-.639 1.122-.639 1.862V37h.016c.088 1.72 1.872 2.996 3.484 3h.008c1.609-.004 3.388-1.281 3.476-3h12.032c.088 1.72 1.872 2.996 3.484 3h.008c1.609-.004 3.388-1.281 3.476-3H37v-6.747c0-.743-.354-1.437-.717-2.084l-.691-.967c-.041-.07-.09-.134-.134-.202H36a1 1 0 001-1zM12 21v-1h1a1 1 0 000-2h-1v-1a1 1 0 00-2 0v1H9a1 1 0 000 2h1v1a1 1 0 002 0zM14 13h1v1a1 1 0 002 0v-1h1a1 1 0 000-2h-1v-1a1 1 0 00-2 0v1h-1a1 1 0 000 2zM22 15h1v1a1 1 0 002 0v-1h1a1 1 0 000-2h-1v-1a1 1 0 00-2 0v1h-1a1 1 0 000 2zM30 12h1v1a1 1 0 002 0v-1h1a1 1 0 000-2h-1V9a1 1 0 00-2 0v1h-1a1 1 0 000 2zM39 17h-1v-1a1 1 0 00-2 0v1h-1a1 1 0 000 2h1v1a1 1 0 002 0v-1h1a1 1 0 000-2z" fill="#253238"/></svg>

<svg width="48" height="48" viewBox="0 0 48 48" fill="none" xmlns="http://www.w3.org/2000/svg">
<path fill-rule="evenodd" clip-rule="evenodd" d="M18 30H16C15.448 30 15 30.448 15 31C15 31.552 15.448 32 16 32H18C18.552 32 19 31.552 19 31C19 30.448 18.552 30 18 30Z" fill="#253238"/>
<path fill-rule="evenodd" clip-rule="evenodd" d="M32 30H30C29.448 30 29 30.448 29 31C29 31.552 29.448 32 30 32H32C32.552 32 33 31.552 33 31C33 30.448 32.552 30 32 30Z" fill="#253238"/>
<path fill-rule="evenodd" clip-rule="evenodd" d="M13 35V30.253C13 30.042 13.209 29.676 13.377 29.381L14.025 28.233C14.419 27.53 15.244 27 15.943 27H32.057C32.732 27 33.464 27.496 33.878 28.233L34.566 29.198C34.724 29.479 35 29.987 35 30.253V35H13ZM33.504 38C32.857 37.998 32.128 37.49 32.015 37H34.985C34.873 37.49 34.147 37.998 33.504 38ZM14.504 38C13.857 37.998 13.128 37.49 13.015 37H15.985C15.873 37.49 15.147 37.998 14.504 38ZM16.869 22.224C17.124 21.458 17.845 21 18.797 21H29.203C30.155 21 30.876 21.458 31.135 22.235L32.095 25H15.905L16.869 22.224ZM37 26C37 25.448 36.552 25 36 25H34.211L33.029 21.592C32.504 20.017 31.002 19 29.203 19H18.797C16.998 19 15.496 20.017 14.975 21.58L13.789 25H12C11.448 25 11 25.448 11 26C11 26.552 11.448 27 12 27H12.447C12.392 27.084 12.332 27.165 12.282 27.252L11.639 28.391C11.354 28.891 11 29.513 11 30.253V37H11.016C11.104 38.72 12.888 39.996 14.5 40H14.508C16.117 39.996 17.896 38.719 17.984 37H30.016C30.104 38.72 31.888 39.996 33.5 40H33.508C35.117 39.996 36.896 38.719 36.984 37H37V30.253C37 29.51 36.646 28.816 36.283 28.169L35.592 27.202C35.551 27.132 35.502 27.068 35.458 27H36C36.552 27 37 26.552 37 26Z" fill="#253238"/>
<path fill-rule="evenodd" clip-rule="evenodd" d="M12 21V20H13C13.552 20 14 19.552 14 19C14 18.448 13.552 18 13 18H12V17C12 16.448 11.552 16 11 16C10.448 16 10 16.448 10 17V18H9C8.448 18 8 18.448 8 19C8 19.552 8.448 20 9 20H10V21C10 21.552 10.448 22 11 22C11.552 22 12 21.552 12 21Z" fill="#253238"/>
<path fill-rule="evenodd" clip-rule="evenodd" d="M14 13H15V14C15 14.552 15.448 15 16 15C16.552 15 17 14.552 17 14V13H18C18.552 13 19 12.552 19 12C19 11.448 18.552 11 18 11H17V10C17 9.448 16.552 9 16 9C15.448 9 15 9.448 15 10V11H14C13.448 11 13 11.448 13 12C13 12.552 13.448 13 14 13Z" fill="#253238"/>
<path fill-rule="evenodd" clip-rule="evenodd" d="M22 15H23V16C23 16.552 23.448 17 24 17C24.552 17 25 16.552 25 16V15H26C26.552 15 27 14.552 27 14C27 13.448 26.552 13 26 13H25V12C25 11.448 24.552 11 24 11C23.448 11 23 11.448 23 12V13H22C21.448 13 21 13.448 21 14C21 14.552 21.448 15 22 15Z" fill="#253238"/>
<path fill-rule="evenodd" clip-rule="evenodd" d="M30 12H31V13C31 13.552 31.448 14 32 14C32.552 14 33 13.552 33 13V12H34C34.552 12 35 11.552 35 11C35 10.448 34.552 10 34 10H33V9C33 8.448 32.552 8 32 8C31.448 8 31 8.448 31 9V10H30C29.448 10 29 10.448 29 11C29 11.552 29.448 12 30 12Z" fill="#253238"/>
<path fill-rule="evenodd" clip-rule="evenodd" d="M39 17H38V16C38 15.448 37.552 15 37 15C36.448 15 36 15.448 36 16V17H35C34.448 17 34 17.448 34 18C34 18.552 34.448 19 35 19H36V20C36 20.552 36.448 21 37 21C37.552 21 38 20.552 38 20V19H39C39.552 19 40 18.552 40 18C40 17.448 39.552 17 39 17Z" fill="#253238"/>
</svg>
